X:1
T:Corpus Domini, 11.11.11.11
T:Corpus Domini, 11.11.11.11
T:G. E. W. Malet, before 1907
T:Public Domain Courtesy of the Cyber Hymnal™
C:G. E. W. Malet, before 1907
Z:Public Domain
Z:Courtesy of the Cyber Hymnal™
%%score ( 1 2 ) ( 3 4 )
L:1/8
Q:1/4=113
M:4/4
K:Bb
V:1 treble 
V:2 treble 
V:3 bass 
V:4 bass 
V:1
 [B,G]3 [CG] [DG]2 [B,G]2 | [EG]4 [CG]4 x2 | [DG]3 [D^F] [C=E]2 [CF]2 | [B,G]8 | %4
 [DB]3 [DB] [DB]2 [=EB]2 | [FB]4 [FB]4 | [EB]3 [EA] [EG]2 [EA]2 | [DB]8 | [Fd]3 [Ed] [Fd]2 [Gd]2 | %9
 c4 c4 | [DB]3 [DB] [Ec]2 [CG]2 | B4 z2 x6 | [B,G]3 [CG] [DG]2 [B,G]2 | [EG]4 [CG]4 | %14
 [DG]3 [D^F] [CD]2 [CF]2 | [B,G]8 |] %16
V:2
 x8 | x10 | x8 | x8 | x8 | x8 | x8 | x8 | x8 | (G2 F2) (F2 D2) | x8 | D6 (A4 C2) | x8 | x8 | x8 | %15
 x8 |] %16
V:3
 [G,,G,]3 [A,,G,] [B,,G,]2 [G,,G,]2 | G,6 z2 A,2 | [D,B,]3 [D,A,] [D,G,]2 [D,A,]2 | [G,,G,]8 | %4
 [G,B,]3 [G,B,] [G,B,]2 [G,C]2 | [F,D]4 [F,D]4 | [F,C]3 [F,C] [F,B,]2 [F,C]2 | [B,,B,]8 | %8
 [B,,B,]3 [C,B,] [D,B,]2 [E,B,]2 | (B,2 A,2) B,4 | [G,B,]3 [G,B,] [C,A,]2 [E,G,]2 | %11
 (G,2 =E,2 [D,^F,]4) x4 | [G,,G,]3 [A,,G,] [B,,G,]2 [G,,G,]2 | [C,G,]4 G,2 A,2 | %14
 [D,B,]3 [D,A,] [D,G,]2 [D,A,]2 | [G,,G,]8 |] %16
V:4
 x8 | C,4 E,4 x2 | x8 | x8 | x8 | x8 | x8 | x8 | x8 | F,4 (F,2 ^F,2) | x8 | D,4 x8 | x8 | x4 E,4 | %14
 x8 | x8 |] %16

